src/pos-icons/compass.svg

<svg height="24" viewBox="0 0 24 24" width="24" xmlns="http://www.w3.org/2000/svg"><path d="m14.19 14.19-8.19 3.81 3.81-8.19 8.19-3.81m-6-4a10 10 0 0 0 -10 10 10 10 0 0 0 10 10 10 10 0 0 0 10-10 10 10 0 0 0 -10-10m0 8.9a1.1 1.1 0 0 0 -1.1 1.1 1.1 1.1 0 0 0 1.1 1.1 1.1 1.1 0 0 0 1.1-1.1 1.1 1.1 0 0 0 -1.1-1.1z"/></svg>

<?xml version="1.0" encoding="UTF-8"?><!DOCTYPE svg PUBLIC "-//W3C//DTD SVG 1.1//EN" "http://www.w3.org/Graphics/SVG/1.1/DTD/svg11.dtd"><svg xmlns="http://www.w3.org/2000/svg" xmlns:xlink="http://www.w3.org/1999/xlink" version="1.1" id="mdi-compass" width="24" height="24" viewBox="0 0 24 24"><path d="M14.19,14.19L6,18L9.81,9.81L18,6M12,2A10,10 0 0,0 2,12A10,10 0 0,0 12,22A10,10 0 0,0 22,12A10,10 0 0,0 12,2M12,10.9A1.1,1.1 0 0,0 10.9,12A1.1,1.1 0 0,0 12,13.1A1.1,1.1 0 0,0 13.1,12A1.1,1.1 0 0,0 12,10.9Z" /></svg>
